X:53
T:Victoria Sett Of Quadrilles No.3. Le4.053
B:L.Leadley MS#4 c1850
Z:Village Music Project, 2016 Steve Mansfield
M:6/8
L:1/8
Q:3/8=90
K:Cmix
AB | c2=B c2f | a3 agf | g2f e2f | ced cAB |
c2=B c2e | a3 agf | g2f ede | f3 f H||
ef | g2^f g2^g | a2f c2c' | b2c' a2c' | g3 gef |
g2^f g2^g | a2f c2f | eag dfe | c3 c2 ||
A | d2A fed | e2A a2g | fed d^cd | e2^c A2A |
d^cd fed | e2e gfe | fed e2^c | d3 d2 !segno! |]

